X:1
T:Title
%%score { ( 1 4 5 ) | ( 2 3 ) }
L:1/8
Q:1/4=106
M:4/4
K:Db
V:1 treble nm="Grand Piano"
V:4 treble 
V:5 treble 
V:2 bass 
V:3 bass 
V:1
 [Fd]2 [FA]>[FA] f2 e>c | [Fd]2 [FA]2 z4 | z4 z2 e2 | e2 f2 z4 | d2 d>d edcB | B2 [FA]2 z4 | %6
w: Geo.~C.~Hugg * * * * *||||||
 e>e e>e e2 e2 | d>d d>d d2 d2 | c>c c>c c2 c2 | B>B B>B B2 [FA]2 | [Fd]2 [FA]2 [Af]2 [Ge]2 | %11
w: |||||
 [Fd]6 FG | A6 z2 | B6 z2 | c6 z2 | d6 z2 | [DGB]2 [DFA]2 z2 [DFA][DFA] | [DGB]2 [DFA]2 z2 [Fd]2 | %18
w: |||||||
 [Fd]4 [Gc]4 | [Fd]8 |] %20
w: ||
V:2
 [D,A,]2 [D,D]>[D,D][K:treble] [DA]2 G>E | [D,A,]2 [D,D]2 z4 | %2
 [D,A,]2 [D,D]>[D,D][K:treble] [DA]2 .[CG]>F | [A,CG]2 [DA]2 z4 | %4
 [G,B,G]2 [G,B,G]>[G,B,G] [G,G]-[G,DG]ED | [G,DG]2 [D,D]2 z4 | %6
 [A,CA]>[A,CA] [A,CA]>[A,CA] [A,CA]2 [A,CG]2 | [B,F]>[B,F] [B,F]>[B,F] [B,F]2 [B,F]2 | %8
 [F,=A,F]>[F,A,F] [F,A,F]>[F,A,F] [F,A,F]2 [F,A,E]2 | [G,DG]>[G,DG] [G,DG]>[G,DG] [G,DG]2 [D,D]2 | %10
 [D,A,]2 [D,D]2 [A,D]2 [A,C]2 | [D,A,]6[K:treble] DE | F6[K:bass][K:treble] z2 | %13
 G6[K:bass][K:treble] z2 | G6 z2 | F6[K:bass] z2 | G,2 D,2 z2 D,D, | G,2 D,2 z2 B,2 | %18
 A,4 [A,,A,]4 | [D,A,]8 |] %20
V:3
 z4[K:treble] z2 [A,C]2 | x8 | z4[K:treble] z2 A,2 | x8 | z4 .B,2 [G,G]2 | x8 | x8 | x8 | x8 | x8 | %10
 x8 | x6[K:treble] x2 | z2[K:bass] D,2 D,2[K:treble] F2 | z2[K:bass] G,2 G,2[K:treble] G2 | %14
 z2 A,2 A,2 G2 | z2[K:bass] D,2 D,2 D,D, | x8 | x8 | x8 | x8 |] %20
V:4
 x8 | x8 | [Fd]2 [FA]>[FA] f2 z z/ d/ | x8 | x8 | x8 | x8 | x8 | x8 | x8 | x8 | x8 | z2 D2 D2 d2 | %13
 z2 D2 D2 e2 | z2 E2 E2 A2 | z2 D2 D2 [DFA][DFA] | x8 | x8 | x8 | x8 |] %20
V:5
 x8 | x8 | z4 z2 z D | x8 | x8 | x8 | x8 | x8 | x8 | x8 | x8 | x8 | x8 | x8 | x8 | x8 | x8 | x8 | %18
 x8 | x8 |] %20

